X: 883
T: The humors of Ballyconnell
C: anon.
O: Ireland
B: Francis O'Neill: "The Dance Music of Ireland" (1907) no. 883
R: Hornpipe
Z: Transcribed by Frank Nordberg - http://www.musicaviva.com
F: http://www.musicaviva.com/abc/tunes/ireland/oneill-1001/oneill-1001-088
3.abc
M: C|
L: 1/8
K: Amix
(ed)|cBcd cBAG|AGEF GABd|cdcB AGEG|ABcd e2(ed)|cBcd cBAG|AEAB cdcB|ABAG E
DEG|A2AAA2:|
|:E2|ABcd e2(dc)|dcde g2(e^d)|efga bagb|a2aa a2(af)|gedB =cBAG|AEAB cdc
B|ABAG EDEG|A2AAA2:|
W:
W:
W: From Musica Viva - http://www.musicaviva.com
W: the Internet center for free sheet music downloads.


